urcenter/urcenter/img/icons/facebook.svg

<svg width="18" height="18" viewBox="0 0 18 18" fill="none" xmlns="http://www.w3.org/2000/svg">
<path d="M12.5789 0H10.704C9.26948 0 8.23914 0.340496 7.61296 1.02126C6.98658 1.70225 6.67367 2.70517 6.67367 4.03045V5.2937C6.67367 5.62755 6.4031 5.89812 6.06925 5.89812H5.42131C5.08747 5.89812 4.81689 6.16869 4.81689 6.50254V8.39556C4.81689 8.72941 5.08747 8.99998 5.42131 8.99998H6.06925C6.4031 8.99998 6.67367 9.27056 6.67367 9.6044V17.3955C6.67367 17.7294 6.94424 18 7.27809 18H9.79367C10.1275 18 10.3981 17.7294 10.3981 17.3955V9.60443C10.3981 9.27056 10.6687 9.00002 11.0025 9.00002H12.273C12.6069 9.00002 12.9058 8.73086 12.9409 8.39902L13.1415 6.49912C13.1766 6.16711 12.9344 5.89812 12.6006 5.89812H11.0023C10.6685 5.89812 10.3979 5.62755 10.3979 5.2937V4.34717C10.3979 4.11426 10.4088 3.93396 10.4307 3.80642C10.4525 3.67909 10.5016 3.55356 10.5782 3.42965C10.6545 3.30597 10.7785 3.22034 10.9495 3.17297C11.1205 3.12563 11.3482 3.10186 11.6321 3.10186H12.5786C12.9125 3.10186 13.183 2.83129 13.183 2.49744V0.604419C13.1833 0.270573 12.9127 0 12.5789 0Z" fill="#273895"/>
</svg>

<svg width="18" height="18" fill="none" xmlns="http://www.w3.org/2000/svg"><path d="M12.579 0h-1.875C9.269 0 8.239.34 7.613 1.021c-.626.681-.94 1.684-.94 3.01v1.263c0 .334-.27.604-.604.604h-.648a.604.604 0 00-.604.605v1.893c0 .333.27.604.604.604h.648c.334 0 .605.27.605.604v7.791c0 .334.27.605.604.605h2.516c.333 0 .604-.27.604-.605v-7.79c0-.334.27-.605.604-.605h1.271c.334 0 .633-.27.668-.601l.2-1.9a.532.532 0 00-.54-.6h-1.599a.604.604 0 01-.604-.605v-.947c0-.233.01-.413.033-.54.022-.128.07-.253.147-.377a.6.6 0 01.372-.257 2.65 2.65 0 01.682-.071h.947c.333 0 .604-.27.604-.605V.604A.604.604 0 0012.579 0z" fill="#273895"/></svg>
